<?xml version="1.0" encoding="UTF-8"?>
<map version="1.10" tiledversion="1.12.2" orientation="orthogonal" renderorder="right-down" width="32" height="32" tilewidth="16" tileheight="16" infinite="0" nextlayerid="5" nextobjectid="16">
 <tileset firstgid="1" source="overworld.tsx"/>
 <tileset firstgid="481" source="marker1.tsx"/>
 <layer id="1" name="Ground" width="32" height="32">
  <data encoding="csv">
242,242,242,242,242,242,242,242,242,242,242,242,242,211,211,242,242,242,242,242,242,242,242,242,242,242,242,242,242,242,242,242,
242,242,242,242,242,242,242,242,242,242,242,242,242,211,211,242,242,242,242,242,242,242,242,242,242,242,242,242,242,242,242,242,
242,242,242,242,242,242,242,242,242,242,242,242,242,211,211,242,242,242,242,242,242,242,242,242,190,191,191,191,191,191,242,242,
242,242,242,242,242,242,242,242,242,242,242,242,242,211,211,364,364,242,364,364,242,242,364,242,190,191,191,191,191,191,242,242,
242,242,242,242,242,242,242,242,242,242,242,242,242,211,211,364,364,364,364,364,364,364,364,242,190,191,191,191,191,191,242,242,
242,242,242,242,242,242,242,242,242,242,242,242,242,211,211,364,425,425,425,425,425,425,364,242,190,191,191,191,191,191,191,242,
242,301,301,301,301,242,242,242,242,242,242,242,242,211,211,364,425,425,425,425,425,425,364,242,191,191,191,191,191,191,191,242,
242,271,271,271,301,242,242,242,242,242,242,242,242,211,211,364,425,425,425,425,425,425,364,242,191,191,191,191,191,191,191,242,
242,274,275,276,301,242,242,242,242,242,242,242,242,211,211,364,425,425,425,425,425,425,364,242,242,242,242,242,242,242,242,242,
242,304,304,304,301,242,242,242,242,242,242,242,242,211,211,364,425,425,425,425,425,425,364,242,242,242,242,242,242,242,242,242,
242,334,335,336,242,242,242,242,242,242,242,242,242,211,211,364,364,364,243,364,364,364,242,242,242,242,242,242,242,242,242,242,
242,242,68,242,242,242,242,242,242,242,242,242,211,211,242,364,242,242,242,242,242,242,242,242,242,242,242,242,242,242,242,242,
242,242,68,242,242,242,242,242,242,242,211,211,211,242,242,242,242,242,242,242,242,242,242,242,242,242,242,242,242,242,242,242,
242,242,68,242,242,242,242,242,242,242,211,242,242,242,242,242,242,242,242,242,242,242,242,242,242,242,242,242,242,242,242,242,
242,242,68,242,242,242,363,363,363,363,211,363,363,363,363,242,242,242,242,242,242,242,242,242,242,242,242,242,242,242,242,242,
242,242,68,242,242,242,363,363,363,363,211,363,363,363,363,363,242,242,242,242,242,242,242,242,242,242,242,242,242,242,242,242,
242,242,68,242,242,242,363,363,363,363,211,363,363,363,363,363,242,242,242,242,242,242,242,242,242,242,242,242,242,242,242,242,
242,242,68,242,242,242,363,363,363,363,211,363,363,363,363,363,242,242,242,242,242,242,242,242,242,242,242,242,242,242,242,242,
242,68,68,242,242,242,363,363,363,363,211,363,363,363,363,363,242,242,242,242,242,242,242,242,242,242,242,242,242,242,242,242,
242,68,242,242,242,242,364,364,363,211,211,211,211,211,211,211,211,364,364,364,364,364,364,242,242,242,242,242,242,242,242,242,
242,68,242,242,242,242,364,364,363,211,211,211,211,211,211,211,211,364,364,364,364,364,364,242,242,242,242,242,242,242,242,242,
242,68,242,242,242,364,364,364,364,271,211,211,211,211,211,211,211,242,242,242,364,364,364,242,242,242,242,242,242,242,242,242,
242,68,242,242,242,364,364,364,364,68,242,242,242,242,242,242,242,242,242,242,364,364,364,242,242,242,242,242,242,242,242,242,
242,68,242,242,242,364,364,364,364,68,68,68,68,68,68,68,68,303,242,242,242,364,364,242,242,242,242,242,242,242,250,242,
242,68,242,242,364,364,364,364,364,364,364,364,364,364,364,242,68,242,242,242,242,364,364,364,242,242,242,242,242,242,242,242,
242,68,242,242,364,364,364,364,364,364,364,364,364,364,364,242,68,242,242,242,364,364,364,364,364,242,242,242,242,242,242,242,
242,68,242,242,364,364,364,425,364,364,364,364,364,364,242,242,68,242,242,242,364,364,364,364,364,242,242,242,242,242,242,242,
242,68,242,242,364,364,364,364,364,364,364,364,364,364,242,242,68,242,364,364,364,364,364,364,364,364,242,242,242,242,242,242,
242,68,242,242,242,242,242,242,242,242,242,242,68,68,68,68,68,242,364,364,364,364,364,364,364,364,242,242,242,242,242,242,
242,68,242,242,242,242,242,242,242,242,242,242,68,242,242,242,242,242,364,364,364,364,364,364,364,364,242,242,242,242,242,242,
242,68,68,68,242,242,242,242,242,242,242,242,68,364,364,364,364,364,364,364,364,364,364,364,364,364,242,242,242,242,242,242,
242,242,242,68,68,68,68,68,68,68,68,68,68,364,364,364,364,364,364,364,364,364,364,364,364,364,242,242,242,242,242,242
</data>
 </layer>
 <layer id="4" name="decorations" width="32" height="32">
  <data encoding="csv">
0,0,0,0,0,0,0,0,0,0,0,0,0,444,444,0,0,0,0,0,0,0,0,0,0,0,0,0,0,0,0,0,
0,0,0,0,0,0,0,0,0,0,0,0,0,474,474,0,0,0,0,0,0,0,0,0,0,0,0,0,0,0,0,0,
0,0,0,0,0,0,0,0,0,0,0,0,0,0,0,0,0,0,0,0,0,0,0,0,0,0,0,0,0,0,0,0,
0,0,0,0,0,0,0,0,0,0,0,0,0,0,0,0,0,0,0,0,0,0,0,0,0,0,0,0,0,0,0,0,
0,0,0,0,0,0,0,0,0,0,0,0,0,0,0,0,0,0,0,0,0,0,0,0,0,0,0,0,0,0,0,0,
0,0,0,0,0,0,0,0,0,0,0,0,0,0,0,0,0,0,0,0,0,0,0,0,0,0,0,0,0,0,0,0,
0,0,0,0,0,0,0,0,0,0,0,0,0,0,0,0,0,0,0,0,0,0,0,0,0,0,0,0,0,0,0,0,
0,0,0,0,0,0,0,0,0,0,0,0,0,0,0,0,0,0,0,0,0,0,0,0,0,0,0,0,0,0,0,0,
0,0,0,0,0,0,0,0,0,0,0,0,0,0,0,0,0,0,0,0,0,0,0,0,0,0,0,0,0,0,0,0,
0,321,381,322,0,0,0,0,0,0,0,0,0,0,0,0,0,0,0,0,0,0,0,0,0,0,0,0,0,0,0,0,
0,351,411,352,0,0,0,0,0,0,0,0,0,0,0,0,0,0,425,0,0,0,0,0,0,0,0,0,0,0,0,0,
0,0,0,0,0,0,0,0,0,0,0,0,0,0,0,0,0,0,0,0,0,0,0,0,0,0,0,0,0,0,0,0,
0,0,0,0,0,0,0,0,0,0,0,0,0,0,0,0,0,0,0,0,0,0,0,0,0,0,0,0,0,0,0,0,
0,0,0,0,0,0,0,0,0,0,0,0,0,0,0,0,0,0,0,0,0,0,0,0,0,0,0,0,0,0,0,0,
0,0,0,0,0,0,0,0,0,0,0,0,0,0,0,0,0,0,0,0,0,0,0,0,0,0,0,0,0,0,0,0,
0,0,0,0,0,0,0,0,0,0,0,0,0,0,0,0,0,0,0,0,0,0,0,0,0,0,0,0,0,0,0,0,
0,0,0,0,0,0,0,0,0,0,0,0,0,0,0,0,0,0,0,0,0,0,0,0,0,0,0,0,0,0,0,0,
0,0,0,0,0,0,0,0,0,0,0,0,0,0,0,0,0,0,0,0,0,0,0,0,0,0,0,0,0,0,0,0,
0,0,0,0,0,0,0,0,0,0,0,0,0,0,0,0,0,0,0,0,0,0,0,0,0,0,0,0,0,0,0,0,
0,0,0,0,0,0,0,0,0,0,0,0,0,0,0,0,0,0,0,0,0,0,0,0,0,0,0,0,0,0,0,0,
0,0,0,0,0,0,0,0,0,0,0,0,0,0,0,0,0,0,0,0,0,0,0,0,0,0,0,0,0,0,0,0,
0,0,0,0,0,0,0,0,0,292,0,0,0,0,0,0,0,0,0,0,0,0,0,0,0,0,0,0,0,0,0,0,
0,0,0,0,0,0,0,0,0,0,0,0,0,0,0,0,0,0,0,0,0,0,0,0,0,0,0,0,0,0,0,0,
0,0,0,0,0,0,0,0,0,0,0,0,0,0,0,0,0,0,0,0,0,0,0,0,0,0,0,0,0,0,0,0,
0,0,0,0,0,0,0,0,0,0,0,0,0,0,0,0,0,0,0,0,0,0,0,0,0,0,0,0,0,0,0,0,
0,0,0,0,0,0,0,0,0,0,0,0,0,0,0,0,0,0,0,0,0,0,0,0,0,0,0,0,0,0,0,0,
0,0,0,0,0,0,0,0,0,0,0,0,0,0,0,0,0,0,0,0,0,0,0,0,0,0,0,0,0,0,0,0,
0,0,0,0,0,0,0,0,0,0,0,0,0,0,0,0,0,0,0,0,0,0,0,0,0,0,0,0,0,0,0,0,
0,0,0,0,0,0,0,0,0,0,0,0,0,0,0,0,0,0,0,0,0,0,0,0,0,0,0,0,0,0,0,0,
0,0,0,0,0,0,0,0,0,0,0,0,0,0,0,0,0,0,0,0,0,0,0,0,0,0,0,0,0,0,0,0,
0,0,0,0,0,0,0,0,0,0,0,0,0,0,0,0,0,0,0,0,0,0,0,0,0,0,0,0,0,0,0,0,
0,0,0,0,0,0,0,0,0,0,0,0,0,0,0,0,0,0,0,0,0,0,0,0,0,0,0,0,0,0,0,0
</data>
 </layer>
 <layer id="3" name="Transition" width="32" height="32" visible="0">
  <data encoding="csv">
0,0,0,0,0,0,0,0,0,0,0,0,0,0,0,0,0,0,0,0,0,0,0,0,0,0,0,0,0,0,0,0,
0,0,0,0,0,0,0,0,0,0,0,0,0,0,0,0,0,0,0,0,0,0,0,0,0,0,0,0,0,0,0,0,
0,0,0,0,0,0,0,0,0,0,0,0,0,0,0,0,0,0,0,0,0,0,0,0,0,0,0,0,0,0,0,0,
0,0,0,0,0,0,0,0,0,0,0,0,0,0,0,0,0,0,0,0,0,0,0,0,0,0,0,0,0,0,0,0,
0,0,0,0,0,0,0,0,0,0,0,0,0,0,0,0,0,0,0,0,0,0,0,0,0,0,0,0,0,0,0,0,
0,0,0,0,0,0,0,0,0,0,0,0,0,0,0,0,0,0,0,0,0,0,0,0,0,0,0,0,0,0,0,0,
0,0,0,0,0,0,0,0,0,0,0,0,0,0,0,0,0,0,0,0,0,0,0,0,0,0,0,0,0,0,0,0,
0,0,0,0,0,0,0,0,0,0,0,0,0,0,0,0,0,0,0,0,0,0,0,0,0,0,0,0,0,0,0,0,
0,481,483,483,0,0,0,0,0,0,0,0,0,0,0,0,0,0,0,0,0,0,0,0,0,0,0,0,0,0,0,0,
0,483,0,483,0,0,0,0,0,0,0,0,0,0,0,0,0,0,0,0,0,0,0,0,0,0,0,0,0,0,0,0,
0,483,483,483,0,0,0,0,0,0,0,0,0,0,0,0,0,0,484,0,0,0,0,0,0,0,0,0,0,0,0,0,
0,0,0,0,0,0,0,0,0,0,0,0,0,0,0,0,0,0,0,0,0,0,0,0,0,0,0,0,0,0,0,0,
0,0,0,0,0,0,0,0,0,0,0,0,0,0,0,0,0,0,0,0,0,0,0,0,0,0,0,0,0,0,0,0,
0,0,0,0,0,0,0,0,0,0,0,0,0,0,0,0,0,0,0,0,0,0,0,0,0,0,0,0,0,0,0,0,
0,0,0,0,0,0,0,0,0,0,0,0,0,0,0,0,0,0,0,0,0,0,0,0,0,0,0,0,0,0,0,0,
0,0,0,0,0,0,0,0,0,0,0,0,0,0,0,0,0,0,0,0,0,0,0,0,0,0,0,0,0,0,0,0,
0,0,0,0,0,0,0,0,0,0,0,0,0,0,0,0,0,0,0,0,0,0,0,0,0,0,0,0,0,0,0,0,
0,0,0,0,0,0,0,0,0,0,0,0,0,0,0,0,0,0,0,0,0,0,0,0,0,0,0,0,0,0,0,0,
0,0,0,0,0,0,0,0,0,0,0,0,0,0,0,0,0,0,0,0,0,0,0,0,0,0,0,0,0,0,0,0,
0,0,0,0,0,0,0,0,0,0,0,0,0,0,0,0,0,0,0,0,0,0,0,0,0,0,0,0,0,0,0,0,
0,0,0,0,0,0,0,0,0,0,0,0,0,0,0,0,0,0,0,0,0,0,0,0,0,0,0,0,0,0,0,0,
0,0,0,0,0,0,0,0,0,481,0,0,0,0,0,0,0,0,0,0,0,0,0,0,0,0,0,0,0,0,0,0,
0,0,0,0,0,0,0,0,0,0,0,0,0,0,0,0,0,0,0,0,0,0,0,0,0,0,0,0,0,0,0,0,
0,0,0,0,0,0,0,0,0,0,0,0,0,0,0,0,0,0,0,0,0,0,0,0,0,0,0,0,0,0,0,0,
0,0,0,0,0,0,0,0,0,0,0,0,0,0,0,0,0,0,0,0,0,0,0,0,0,0,0,0,0,0,0,0,
0,0,0,0,0,0,0,0,0,0,0,0,0,0,0,0,0,0,0,0,0,0,0,0,0,0,0,0,0,0,0,0,
0,0,0,0,0,0,0,0,0,0,0,0,0,0,0,0,0,0,0,0,0,0,0,0,0,0,0,0,0,0,0,0,
0,0,0,0,0,0,0,0,0,0,0,0,0,0,0,0,0,0,0,0,0,0,0,0,0,0,0,0,0,0,0,0,
0,0,0,0,0,0,0,0,0,0,0,0,0,0,0,0,0,0,0,0,0,0,0,0,0,0,0,0,0,0,0,0,
0,0,0,0,0,0,0,0,0,0,0,0,0,0,0,0,0,0,0,0,0,0,0,0,0,0,0,0,0,0,0,0,
0,0,0,0,0,0,0,0,0,0,0,0,0,0,0,0,0,0,0,0,0,0,0,0,0,0,0,0,0,0,0,0,
0,0,0,0,0,0,0,0,0,0,0,0,0,0,0,0,0,0,0,0,0,0,0,0,0,0,0,0,0,0,0,0
</data>
 </layer>
</map>
