<?xml version="1.0" encoding="UTF-8"?>
<map version="1.10" tiledversion="1.12.2" orientation="orthogonal" renderorder="right-down" width="30" height="20" tilewidth="16" tileheight="16" infinite="0" nextlayerid="14" nextobjectid="30">
 <tileset firstgid="1" source="../Tiles/exterior.tsx"/>
 <tileset firstgid="481" source="overworld.tsx"/>
 <tileset firstgid="961" source="marker1.tsx"/>
 <tileset firstgid="1441" source="marker2.tsx"/>
 <layer id="1" name="Ground" width="30" height="20">
  <properties>
   <property name="blocked" type="bool" value="false"/>
  </properties>
  <data encoding="csv">
271,271,271,271,271,271,271,271,271,271,271,271,271,130,271,271,271,271,271,271,271,271,271,271,271,271,271,271,271,271,
271,271,271,271,271,315,315,242,242,242,271,243,271,130,271,243,247,243,271,271,394,250,250,250,250,250,250,250,271,271,
271,271,271,242,315,315,315,315,242,242,271,271,271,130,271,247,247,247,271,271,424,250,172,172,172,172,172,250,271,271,
271,271,241,315,315,315,315,315,315,242,243,271,271,130,271,247,247,247,271,271,424,250,172,172,172,172,172,250,271,271,
271,271,241,315,315,315,315,315,315,242,271,271,271,130,271,247,247,247,271,271,424,250,172,172,172,172,172,250,250,271,
271,271,271,315,315,315,315,315,315,242,271,271,271,130,271,247,247,247,271,271,454,250,172,172,172,172,172,172,250,271,
271,271,271,315,315,360,315,316,315,242,271,271,271,130,271,247,747,247,271,271,271,250,172,172,172,172,172,250,250,271,
271,271,271,451,452,452,452,452,452,453,271,243,271,130,271,271,271,271,130,130,130,250,247,360,250,250,250,250,271,271,
271,271,271,271,271,271,271,271,271,271,271,271,271,130,271,243,271,130,130,130,130,130,130,130,130,130,130,130,130,271,
130,130,130,130,130,130,130,130,130,130,130,130,130,130,130,130,130,130,130,157,158,158,158,158,158,158,158,159,130,271,
271,271,271,271,304,305,305,305,306,271,271,271,271,271,271,271,271,271,271,217,188,188,188,188,188,188,188,219,130,271,
271,271,271,271,304,305,305,305,306,271,271,271,271,271,271,271,271,271,271,217,188,188,188,188,188,188,188,219,130,271,
271,271,271,271,334,335,335,335,336,271,271,271,271,271,271,271,271,271,271,217,188,188,188,188,188,188,188,219,130,271,
271,271,271,271,271,271,271,271,271,271,271,271,271,271,271,271,271,271,211,211,211,211,211,211,211,211,271,271,130,271,
271,211,211,211,211,211,211,211,211,211,211,211,211,211,211,211,271,271,211,211,211,211,211,211,211,211,271,271,130,271,
271,211,211,211,211,211,211,211,211,211,211,211,211,211,211,211,271,122,122,271,271,271,271,271,271,271,271,271,130,271,
271,211,211,211,211,211,211,211,211,211,211,211,211,211,211,211,271,122,122,271,271,271,271,271,271,271,271,271,130,271,
211,211,211,211,211,211,211,211,211,211,211,211,211,211,211,211,271,271,211,271,271,271,271,271,271,271,271,271,130,271,
211,211,211,211,211,211,211,211,211,211,211,211,211,211,211,211,211,211,211,271,271,271,271,271,271,271,271,271,130,271,
211,211,211,211,211,211,211,211,211,211,211,211,211,211,211,211,211,271,271,271,271,271,271,271,271,271,271,271,130,271
</data>
 </layer>
 <layer id="13" name="Transition" width="30" height="20" visible="0">
  <data encoding="csv">
0,0,0,0,0,0,0,0,0,0,0,0,0,0,0,0,0,0,0,0,0,0,0,0,0,0,0,0,0,0,
0,0,0,0,0,0,0,0,0,0,0,0,0,0,0,0,0,0,0,0,0,0,0,0,0,0,0,0,0,0,
0,0,0,0,0,0,0,0,0,0,0,0,0,0,0,0,0,0,0,0,0,0,0,0,0,0,0,0,0,0,
0,0,0,0,0,0,0,0,0,0,0,0,0,0,0,0,0,0,0,0,0,0,0,0,0,0,0,0,0,0,
0,0,0,0,0,0,0,0,0,0,0,0,0,0,0,0,0,0,0,0,0,0,0,0,0,0,0,0,0,0,
0,0,0,0,0,0,0,0,0,0,0,0,0,0,0,0,0,0,0,0,0,0,0,0,0,0,0,0,0,0,
0,0,0,0,0,1441,0,0,0,0,0,0,0,0,0,0,1443,0,0,0,0,0,0,0,0,0,0,0,0,0,
0,0,0,0,0,0,0,0,0,0,0,0,0,0,0,0,0,0,0,0,0,0,0,1442,0,0,0,0,0,0,
0,0,0,0,0,0,0,0,0,0,0,0,0,0,0,0,0,0,0,0,0,0,0,0,0,0,0,0,0,0,
962,0,0,0,0,0,0,0,0,0,0,0,0,0,0,0,0,0,0,0,0,0,0,0,0,0,0,0,0,0,
0,0,0,0,0,0,0,0,0,0,0,0,0,0,0,0,0,0,0,0,0,0,0,0,0,0,0,0,0,0,
0,0,0,0,0,0,0,0,0,0,0,0,0,0,0,0,0,0,0,0,0,0,0,0,0,0,0,0,0,0,
0,0,0,0,0,0,0,0,0,0,0,0,0,0,0,0,0,0,0,0,0,0,0,0,0,0,0,0,0,0,
0,0,0,0,0,0,0,0,0,0,0,0,0,0,0,0,0,0,0,0,0,0,0,0,0,0,0,0,0,0,
0,0,0,0,0,0,0,0,0,0,0,0,0,0,0,0,0,0,0,0,0,0,0,0,0,0,0,0,0,0,
0,0,0,0,0,0,0,0,0,0,0,0,0,0,0,0,0,0,0,0,0,0,0,0,0,0,0,0,0,0,
0,0,0,0,0,0,0,0,0,0,0,0,0,0,0,0,0,0,0,0,0,0,0,0,0,0,0,0,0,0,
0,0,0,0,0,0,0,0,0,0,0,0,0,0,0,0,0,0,0,0,0,0,0,0,0,0,0,0,0,0,
0,0,0,0,0,0,0,0,0,0,0,0,0,0,0,0,0,0,0,0,0,0,0,0,0,0,0,0,0,0,
0,0,0,0,0,0,0,0,0,0,0,0,0,0,0,0,0,0,0,0,0,0,0,0,0,0,0,0,962,0
</data>
 </layer>
 <layer id="11" name="Tile Layer 2" width="30" height="20">
  <data encoding="csv">
0,0,0,0,0,355,356,0,0,0,0,0,0,0,0,0,268,0,0,0,0,0,0,0,0,0,0,0,0,0,
0,0,0,0,355,377,378,356,0,0,0,0,0,0,0,357,298,358,0,0,0,408,408,408,408,408,408,408,0,0,
0,0,290,355,377,377,378,378,356,0,0,0,0,0,0,387,0,388,0,0,0,408,408,408,408,408,408,408,0,0,
0,0,290,377,377,385,386,378,378,0,0,0,0,0,0,0,0,0,0,0,0,408,408,408,408,408,408,408,0,0,
0,0,290,377,385,0,0,386,378,0,0,0,0,0,0,0,0,0,0,0,0,408,408,408,408,408,408,408,408,0,
0,0,290,385,0,0,0,0,386,0,0,0,0,0,0,0,0,0,0,0,0,408,408,408,408,408,408,408,408,0,
0,0,290,0,0,0,0,0,0,0,0,0,0,0,0,0,0,0,0,0,0,408,408,408,408,408,408,408,0,0,
0,0,0,0,0,0,0,0,597,0,0,0,0,0,0,0,0,597,0,0,0,0,0,0,597,0,0,0,0,0,
0,0,0,0,0,0,0,0,0,0,0,0,0,0,0,0,0,0,0,0,0,0,0,0,0,0,0,0,0,0,
0,0,0,0,0,0,0,0,0,0,0,0,0,0,0,0,0,0,0,0,0,0,0,0,0,0,0,0,0,0,
0,0,0,0,0,0,0,0,0,0,0,0,0,0,0,0,0,0,0,0,0,0,0,0,0,0,0,0,0,0,
0,0,0,0,0,0,0,0,0,0,0,0,0,0,0,0,0,0,0,0,0,0,0,0,0,0,0,0,0,0,
0,0,0,0,0,0,0,0,0,0,0,0,0,0,0,0,0,0,0,0,0,0,0,0,0,0,0,0,0,0,
0,0,0,0,0,0,0,0,0,0,0,0,0,0,0,0,0,0,0,0,0,0,0,0,0,0,0,0,0,0,
0,0,0,0,0,0,0,0,0,0,0,0,0,0,0,0,0,0,0,0,0,0,0,0,0,0,0,0,0,0,
0,0,0,0,0,0,0,0,0,0,0,0,0,0,0,0,0,0,0,0,0,0,0,0,0,0,0,0,0,0,
0,0,0,0,0,0,0,0,0,0,0,0,0,0,0,0,0,0,0,0,0,0,0,0,0,0,0,0,0,0,
0,0,0,0,0,0,0,0,0,0,0,0,0,0,0,0,0,0,0,0,0,0,0,0,0,0,0,0,0,0,
0,0,0,0,0,0,0,0,0,0,0,0,0,0,0,0,0,0,0,0,0,0,0,0,0,0,0,0,0,0,
0,0,0,0,0,0,0,0,0,0,0,0,0,0,0,0,0,0,0,0,0,0,0,0,0,0,0,0,0,0
</data>
 </layer>
</map>
